X:1
T:Palms of Glory, 77.77
T:Palms of Glory, 77.77
T:William Daylrymple MacLagan, 1875
T:Public Domain Courtesy of the Cyber Hymnal™
C:William Daylrymple MacLagan, 1875
Z:Public Domain
Z:Courtesy of the Cyber Hymnal™
%%score ( 1 2 ) ( 3 4 )
L:1/8
Q:1/4=110
M:4/4
K:A
V:1 treble 
V:2 treble 
V:3 bass 
V:4 bass 
V:1
 [CE]2 E2 [CA]3 [FB] | A2 z [CA]4 x | [EB]2 [Ec]2 [EB]3 [EA] | [EG]2 [^DF]2 E4 x | %4
 [Ad]2 [Ed]2 [Ed]2 [Ec]2 | [FB]2 [FA]2 A2 z x3 | [CA]2 [=Ge]2 [Fd]2 [FB]2 | [EA]2 [EG]2 [EA]4 |] %8
V:2
 x8 | E3 (G2 D) x2 | x8 | x4 E4 x | x8 | x4 E3 (G2 D) | x8 | x8 |] %8
V:3
 A,2 [G,B,]2 [F,A,]3 [D,D] | [E,C]2 [E,B,]2 A,4 | [E,G,]2 [A,,A,]2 [E,G,]3 [C,A,] | %3
 B,3 z A, [E,G,]4 | [F,A,]2 [G,B,]2 A,2 [A,,A,]2 | [D,F,]2 [^D,B,]2 [E,B,]4 x2 | %6
 [F,A,]2 [C,A,]2 [D,A,]2 [D,D]2 | [E,C]2 [E,B,]2 [A,,C]4 |] %8
V:4
 A,2 x6 | x4 A,4 | x8 | B,,2 B,,2 x5 | x4 A,2 x2 | x10 | x8 | x8 |] %8

